X: 33362
T: Queen Of The Fairies, The
R: hornpipe
M: 4/4
K: Dmajor
f(3abc'|:d'afa bgeg|fdec ddef|gbaf gecd|(3fed (3dcB Af(3abc'|
d'afa bgeg|fdec ddef|gbaf gecd|1 (3gfe dc df(3abc:|2 (3gfe dc d2AG||
|:FAdA FAdf|gbef gbeA|FAdA FAdf|(3gfe cA (3gfe cA|
(3FGA dA (3FGA df|~g3a bc'(3d'c'b|afdg bgec|1 d2dc dBAG:|2 d2dc df(3abc'||

